static/cards/FrenchDeck/cyberwave/card_clubs_A.svg

<svg xmlns="http://www.w3.org/2000/svg" width="822" height="1122" fill="none" viewBox="0 0 822 1122"><rect width="822" height="1122" fill="#1a0033" rx="20"/><g clip-path="url(#a)"><path stroke="#fff066" stroke-width="20" d="M393.417 420.402c45.09 0 81.709 36.705 81.709 82.065v9.823l9.803.194c44.332.873 80.071 37.239 80.071 82.049 0 45.36-36.619 82.065-81.709 82.065-41.149 0-75.252-30.574-80.89-70.397h-19.802c-5.638 39.823-39.741 70.397-80.89 70.397-45.09 0-81.709-36.705-81.709-82.065s36.619-82.066 81.709-82.066h10v-10c0-45.36 36.618-82.065 81.708-82.065Z"/><path fill="#fff066" d="M382 618c0-5.523 4.477-10 10-10s10 4.477 10 10v96c0 5.523-4.477 10-10 10s-10-4.477-10-10zM83.77 159q-1.025 0-1.536-.64-.384-.768 0-1.664l35.072-82.56q.512-1.28.896-1.664.512-.512 1.664-.512h2.304q1.152 0 1.536.512.511.384 1.024 1.664l35.072 82.56q.128.256.128.768 0 .64-.512 1.152-.384.384-1.152.384h-2.432q-1.409 0-2.048-.512-.64-.512-1.152-1.664l-9.728-23.04H99.129l-9.728 23.04q-.511 1.152-1.151 1.664T86.2 159zm56.448-31.488-19.2-45.44-19.328 45.44zM141.309 231.337v-.004c0-11.782-9.224-21.333-20.603-21.333s-20.603 9.551-20.603 21.333c-11.379 0-20.603 9.552-20.603 21.334S88.724 274 100.103 274c10.386 0 18.977-7.957 20.397-18.305C121.92 266.043 130.511 274 140.897 274c11.379 0 20.603-9.551 20.603-21.333 0-11.64-9.002-21.102-20.191-21.33"/><rect width="5" height="33" x="118.5" y="251" fill="#fff066" rx="2.5"/><path fill="#fff066" d="M730.23 959q1.024 0 1.536.64.384.768 0 1.664l-35.072 82.556c-.341.86-.64 1.41-.896 1.67q-.512.51-1.664.51h-2.304q-1.152 0-1.536-.51c-.341-.26-.682-.81-1.024-1.67l-35.072-82.556q-.128-.257-.128-.768 0-.64.512-1.152.384-.384 1.152-.384h2.432q1.409 0 2.048.512.64.512 1.152 1.664l9.728 23.04h43.776l9.728-23.04q.513-1.152 1.152-1.664.64-.512 2.048-.512zm-56.448 31.488 19.2 45.442 19.328-45.442zM672.691 886.663v.004c0 11.782 9.224 21.333 20.603 21.333s20.603-9.551 20.603-21.333c11.379 0 20.603-9.552 20.603-21.334S725.276 844 713.897 844c-10.386 0-18.977 7.957-20.397 18.305C692.08 851.957 683.489 844 673.103 844c-11.379 0-20.603 9.551-20.603 21.333 0 11.64 9.002 21.102 20.191 21.33"/><rect width="5" height="33" x="695.5" y="867" fill="#fff066" rx="2.5" transform="rotate(-180 695.5 867)"/></g><defs><clipPath id="a"><path fill="#fff" d="M46 48h722v1022H46z"/></clipPath></defs></svg>

<svg width="822" height="1122" viewBox="0 0 822 1122" fill="none" xmlns="http://www.w3.org/2000/svg">
<rect width="822" height="1122" rx="20" fill="#1A0033"/>
<g clip-path="url(#clip0_9_42)">
<path d="M393.417 420.402C438.507 420.402 475.126 457.107 475.126 502.467V512.29L484.929 512.484C529.261 513.357 565 549.723 565 594.533C565 639.893 528.381 676.598 483.291 676.598C442.142 676.598 408.039 646.024 402.401 606.201H382.599C376.961 646.024 342.858 676.598 301.709 676.598C256.619 676.598 220 639.893 220 594.533C220 549.172 256.619 512.467 301.709 512.467H311.709V502.467C311.709 457.107 348.327 420.402 393.417 420.402Z" stroke="#FFF066" stroke-width="20"/>
<path d="M382 618C382 612.477 386.477 608 392 608C397.523 608 402 612.477 402 618V714C402 719.523 397.523 724 392 724C386.477 724 382 719.523 382 714V618Z" fill="#FFF066"/>
<path d="M83.7695 159C83.0868 159 82.5748 158.787 82.2335 158.36C81.9775 157.848 81.9775 157.293 82.2335 156.696L117.306 74.136C117.647 73.2827 117.946 72.728 118.202 72.472C118.543 72.1307 119.098 71.96 119.866 71.96H122.17C122.938 71.96 123.45 72.1307 123.706 72.472C124.047 72.728 124.388 73.2827 124.73 74.136L159.802 156.696C159.887 156.867 159.93 157.123 159.93 157.464C159.93 157.891 159.759 158.275 159.418 158.616C159.162 158.872 158.778 159 158.266 159H155.834C154.895 159 154.212 158.829 153.786 158.488C153.359 158.147 152.975 157.592 152.634 156.824L142.906 133.784H99.1295L89.4015 156.824C89.0602 157.592 88.6762 158.147 88.2495 158.488C87.8228 158.829 87.1402 159 86.2015 159H83.7695ZM140.218 127.512L121.018 82.072L101.69 127.512H140.218Z" fill="#FFF066"/>
<path d="M141.309 231.337C141.309 231.336 141.309 231.335 141.309 231.333C141.309 219.551 132.085 210 120.706 210C109.327 210 100.103 219.551 100.103 231.333C88.7243 231.333 79.5 240.885 79.5 252.667C79.5 264.449 88.7243 274 100.103 274C110.489 274 119.08 266.043 120.5 255.695C121.92 266.043 130.511 274 140.897 274C152.276 274 161.5 264.449 161.5 252.667C161.5 241.027 152.498 231.565 141.309 231.337Z" fill="#FFF066"/>
<rect x="118.5" y="251" width="5" height="33" rx="2.5" fill="#FFF066"/>
<path d="M730.23 959C730.913 959 731.425 959.213 731.766 959.64C732.022 960.152 732.022 960.707 731.766 961.304L696.694 1043.86C696.353 1044.72 696.054 1045.27 695.798 1045.53C695.457 1045.87 694.902 1046.04 694.134 1046.04H691.83C691.062 1046.04 690.55 1045.87 690.294 1045.53C689.953 1045.27 689.612 1044.72 689.27 1043.86L654.198 961.304C654.113 961.133 654.07 960.877 654.07 960.536C654.07 960.109 654.241 959.725 654.582 959.384C654.838 959.128 655.222 959 655.734 959H658.166C659.105 959 659.788 959.171 660.214 959.512C660.641 959.853 661.025 960.408 661.366 961.176L671.094 984.216H714.87L724.598 961.176C724.94 960.408 725.324 959.853 725.75 959.512C726.177 959.171 726.86 959 727.798 959H730.23ZM673.782 990.488L692.982 1035.93L712.31 990.488H673.782Z" fill="#FFF066"/>
<path d="M672.691 886.663C672.691 886.664 672.691 886.665 672.691 886.667C672.691 898.449 681.915 908 693.294 908C704.673 908 713.897 898.449 713.897 886.667C725.276 886.667 734.5 877.115 734.5 865.333C734.5 853.551 725.276 844 713.897 844C703.511 844 694.92 851.957 693.5 862.305C692.08 851.957 683.489 844 673.103 844C661.724 844 652.5 853.551 652.5 865.333C652.5 876.973 661.502 886.435 672.691 886.663Z" fill="#FFF066"/>
<rect x="695.5" y="867" width="5" height="33" rx="2.5" transform="rotate(-180 695.5 867)" fill="#FFF066"/>
</g>
<defs>
<clipPath id="clip0_9_42">
<rect width="722" height="1022" fill="white" transform="translate(46 48)"/>
</clipPath>
</defs>
</svg>
